webroot/img/icon_facebook.svg

<svg width="7" height="13" viewBox="0 0 7 13" fill="none" xmlns="http://www.w3.org/2000/svg">
<path d="M5.02147 2.60552H6.63242V0.22583H4.7387V0.234412C2.44414 0.315681 1.97387 1.6055 1.93242 2.9602H1.9277V4.14851H0.365234V6.47894H1.9277V12.7258H4.28242V6.47894H6.21132L6.58393 4.14851H4.28319V3.43056C4.28319 2.97273 4.58784 2.60552 5.02147 2.60552Z" fill="#00ADEE"/>
</svg>

<svg viewBox="0 0 7 13" xmlns="http://www.w3.org/2000/svg">
  <path d="M5.02 2.6h1.61V.24h-1.9c-2.29.09-2.76 1.38-2.8 2.73v1.19H.37v2.33h1.56v6.25h2.35V6.48h1.93l.37-2.33h-2.3v-.72c0-.46.3-.82.74-.82z" fill="#00ADEE"/>
</svg>
